src/assets/img/globalping/credits/polygons_2.svg

<svg width="362" height="288" viewBox="0 0 362 288" fill="none" xmlns="http://www.w3.org/2000/svg">
<path fill-rule="evenodd" clip-rule="evenodd" d="M284.003 39.2547L221.502 3.16932C219.645 2.09753 217.358 2.09753 215.502 3.16933L153 39.2547C151.144 40.3265 150 42.3072 150 44.4508V116.622C150 118.765 151.144 120.746 153 121.818L215.502 157.903C217.358 158.975 219.645 158.975 221.502 157.903L284.003 121.818C285.86 120.746 287.003 118.765 287.003 116.622V44.4508C287.003 42.3072 285.86 40.3265 284.003 39.2547ZM222.502 1.43727C220.026 0.00821084 216.977 0.00821507 214.502 1.43728L152 37.5226C149.525 38.9517 148 41.5927 148 44.4508V116.622C148 119.48 149.525 122.121 152 123.55L214.502 159.635C216.977 161.064 220.026 161.064 222.502 159.635L285.003 123.55C287.479 122.121 289.003 119.48 289.003 116.622V44.4508C289.003 41.5927 287.479 38.9517 285.003 37.5226L222.502 1.43727ZM147.502 130.168L210.003 166.254C211.86 167.326 213.003 169.306 213.003 171.45V243.621C213.003 245.764 211.86 247.745 210.003 248.817L147.502 284.902C145.645 285.974 143.358 285.974 141.502 284.902L79 248.817C77.1436 247.745 76 245.764 76 243.621V171.45C76 169.306 77.1436 167.326 79 166.254L141.502 130.168C143.358 129.097 145.645 129.097 147.502 130.168ZM140.502 128.436C142.977 127.007 146.026 127.007 148.502 128.436L211.003 164.522C213.479 165.951 215.003 168.592 215.003 171.45V243.621C215.003 246.479 213.479 249.12 211.003 250.549L148.502 286.634C146.026 288.063 142.977 288.063 140.502 286.634L78 250.549C75.5248 249.12 74 246.479 74 243.621V171.45C74 168.592 75.5248 165.951 78 164.522L140.502 128.436ZM294.502 130.168L357.003 166.254C358.86 167.326 360.003 169.306 360.003 171.45V243.621C360.003 245.764 358.86 247.745 357.003 248.817L294.502 284.902C292.645 285.974 290.358 285.974 288.502 284.902L226 248.817C224.144 247.745 223 245.764 223 243.621V171.45C223 169.306 224.144 167.326 226 166.254L288.502 130.168C290.358 129.097 292.645 129.097 294.502 130.168ZM287.502 128.436C289.977 127.007 293.026 127.007 295.502 128.436L358.003 164.522C360.479 165.951 362.003 168.592 362.003 171.45V243.621C362.003 246.479 360.479 249.12 358.003 250.549L295.502 286.634C293.026 288.063 289.977 288.063 287.502 286.634L225 250.549C222.525 249.12 221 246.479 221 243.621V171.45C221 168.592 222.525 165.951 225 164.522L287.502 128.436ZM73.5017 3.16938L136.003 39.2547C137.86 40.3265 139.003 42.3073 139.003 44.4509V116.622C139.003 118.765 137.86 120.746 136.003 121.818L73.5017 157.903C71.6453 158.975 69.3581 158.975 67.5017 157.903L5.00001 121.818C3.1436 120.746 2 118.765 2 116.622V44.4509C2 42.3073 3.1436 40.3265 5 39.2547L67.5017 3.16939C69.3581 2.09759 71.6453 2.09759 73.5017 3.16938ZM66.5017 1.43733C68.9769 0.00827265 72.0265 0.00826842 74.5017 1.43733L137.003 37.5227C139.479 38.9517 141.003 41.5928 141.003 44.4509V116.622C141.003 119.48 139.479 122.121 137.003 123.55L74.5017 159.635C72.0265 161.064 68.9769 161.064 66.5017 159.635L4.00001 123.55C1.5248 122.121 0 119.48 0 116.622V44.4509C0 41.5928 1.52479 38.9517 4 37.5227L66.5017 1.43733Z" fill="url(#paint0_radial_8672_14551)"/>
<path fill-rule="evenodd" clip-rule="evenodd" d="M284.003 39.2547L221.502 3.16932C219.645 2.09753 217.358 2.09753 215.502 3.16933L153 39.2547C151.144 40.3265 150 42.3072 150 44.4508V116.622C150 118.765 151.144 120.746 153 121.818L215.502 157.903C217.358 158.975 219.645 158.975 221.502 157.903L284.003 121.818C285.86 120.746 287.003 118.765 287.003 116.622V44.4508C287.003 42.3072 285.86 40.3265 284.003 39.2547ZM222.502 1.43727C220.026 0.00821084 216.977 0.00821507 214.502 1.43728L152 37.5226C149.525 38.9517 148 41.5927 148 44.4508V116.622C148 119.48 149.525 122.121 152 123.55L214.502 159.635C216.977 161.064 220.026 161.064 222.502 159.635L285.003 123.55C287.479 122.121 289.003 119.48 289.003 116.622V44.4508C289.003 41.5927 287.479 38.9517 285.003 37.5226L222.502 1.43727ZM147.502 130.168L210.003 166.254C211.86 167.326 213.003 169.306 213.003 171.45V243.621C213.003 245.764 211.86 247.745 210.003 248.817L147.502 284.902C145.645 285.974 143.358 285.974 141.502 284.902L79 248.817C77.1436 247.745 76 245.764 76 243.621V171.45C76 169.306 77.1436 167.326 79 166.254L141.502 130.168C143.358 129.097 145.645 129.097 147.502 130.168ZM140.502 128.436C142.977 127.007 146.026 127.007 148.502 128.436L211.003 164.522C213.479 165.951 215.003 168.592 215.003 171.45V243.621C215.003 246.479 213.479 249.12 211.003 250.549L148.502 286.634C146.026 288.063 142.977 288.063 140.502 286.634L78 250.549C75.5248 249.12 74 246.479 74 243.621V171.45C74 168.592 75.5248 165.951 78 164.522L140.502 128.436ZM294.502 130.168L357.003 166.254C358.86 167.326 360.003 169.306 360.003 171.45V243.621C360.003 245.764 358.86 247.745 357.003 248.817L294.502 284.902C292.645 285.974 290.358 285.974 288.502 284.902L226 248.817C224.144 247.745 223 245.764 223 243.621V171.45C223 169.306 224.144 167.326 226 166.254L288.502 130.168C290.358 129.097 292.645 129.097 294.502 130.168ZM287.502 128.436C289.977 127.007 293.026 127.007 295.502 128.436L358.003 164.522C360.479 165.951 362.003 168.592 362.003 171.45V243.621C362.003 246.479 360.479 249.12 358.003 250.549L295.502 286.634C293.026 288.063 289.977 288.063 287.502 286.634L225 250.549C222.525 249.12 221 246.479 221 243.621V171.45C221 168.592 222.525 165.951 225 164.522L287.502 128.436ZM73.5017 3.16938L136.003 39.2547C137.86 40.3265 139.003 42.3073 139.003 44.4509V116.622C139.003 118.765 137.86 120.746 136.003 121.818L73.5017 157.903C71.6453 158.975 69.3581 158.975 67.5017 157.903L5.00001 121.818C3.1436 120.746 2 118.765 2 116.622V44.4509C2 42.3073 3.1436 40.3265 5 39.2547L67.5017 3.16939C69.3581 2.09759 71.6453 2.09759 73.5017 3.16938ZM66.5017 1.43733C68.9769 0.00827265 72.0265 0.00826842 74.5017 1.43733L137.003 37.5227C139.479 38.9517 141.003 41.5928 141.003 44.4509V116.622C141.003 119.48 139.479 122.121 137.003 123.55L74.5017 159.635C72.0265 161.064 68.9769 161.064 66.5017 159.635L4.00001 123.55C1.5248 122.121 0 119.48 0 116.622V44.4509C0 41.5928 1.52479 38.9517 4 37.5227L66.5017 1.43733Z" fill="url(#paint1_radial_8672_14551)"/>
<defs>
<radialGradient id="paint0_radial_8672_14551" cx="0" cy="0" r="1" gradientUnits="userSpaceOnUse" gradientTransform="translate(60.9699 241) rotate(-44.8809) scale(170.06 167.606)">
<stop stop-color="#2E67EA"/>
<stop offset="1" stop-color="#2E67EA" stop-opacity="0"/>
</radialGradient>
<radialGradient id="paint1_radial_8672_14551" cx="0" cy="0" r="1" gradientUnits="userSpaceOnUse" gradientTransform="translate(329.47 91) rotate(119.726) scale(128.985 148.915)">
<stop stop-color="#17D4A7" stop-opacity="0.5"/>
<stop offset="1" stop-color="#17D4A7" stop-opacity="0"/>
</radialGradient>
</defs>
</svg>

<svg xmlns="http://www.w3.org/2000/svg" width="362" height="288" fill="none">
  <path fill="url(#a)" fill-rule="evenodd" d="M284.003 39.255 221.502 3.169a6 6 0 0 0-6 0L153 39.255a6 6 0 0 0-3 5.196v72.171a6 6 0 0 0 3 5.196l62.502 36.085a6 6 0 0 0 6 0l62.501-36.085a6 6 0 0 0 3-5.196V44.451a6 6 0 0 0-3-5.196M222.502 1.437a8 8 0 0 0-8 0L152 37.523a8 8 0 0 0-4 6.928v72.171a8 8 0 0 0 4 6.928l62.502 36.085a8 8 0 0 0 8 0l62.501-36.085a8 8 0 0 0 4-6.928V44.451c0-2.858-1.524-5.5-4-6.928zm-75 128.731 62.501 36.086a6 6 0 0 1 3 5.196v72.171a6 6 0 0 1-3 5.196l-62.501 36.085a6 6 0 0 1-6 0L79 248.817a6 6 0 0 1-3-5.196V171.45a6 6 0 0 1 3-5.196l62.502-36.086a6 6 0 0 1 6 0m-7-1.732a8 8 0 0 1 8 0l62.501 36.086a8 8 0 0 1 4 6.928v72.171a8 8 0 0 1-4 6.928l-62.501 36.085a8 8 0 0 1-8 0L78 250.549a8 8 0 0 1-4-6.928V171.45a8 8 0 0 1 4-6.928zm154 1.732 62.501 36.086a6 6 0 0 1 3 5.196v72.171a6 6 0 0 1-3 5.196l-62.501 36.085a6 6 0 0 1-6 0L226 248.817a6 6 0 0 1-3-5.196V171.45a6 6 0 0 1 3-5.196l62.502-36.086a6 6 0 0 1 6 0m-7-1.732a8 8 0 0 1 8 0l62.501 36.086a8 8 0 0 1 4 6.928v72.171a8 8 0 0 1-4 6.928l-62.501 36.085a8 8 0 0 1-8 0L225 250.549a8 8 0 0 1-4-6.928V171.45a8 8 0 0 1 4-6.928zm-214-125.267 62.501 36.086a6 6 0 0 1 3 5.196v72.171a6 6 0 0 1-3 5.196l-62.501 36.085a6 6 0 0 1-6 0L5 121.818a6 6 0 0 1-3-5.196V44.451a6 6 0 0 1 3-5.196L67.502 3.169a6 6 0 0 1 6 0m-7-1.732a8 8 0 0 1 8 0l62.501 36.086a8 8 0 0 1 4 6.928v72.171a8 8 0 0 1-4 6.928l-62.501 36.085a8 8 0 0 1-8 0L4 123.55a8 8 0 0 1-4-6.928V44.451a8 8 0 0 1 4-6.928z" clip-rule="evenodd"/>
  <path fill="url(#b)" fill-rule="evenodd" d="M284.003 39.255 221.502 3.169a6 6 0 0 0-6 0L153 39.255a6 6 0 0 0-3 5.196v72.171a6 6 0 0 0 3 5.196l62.502 36.085a6 6 0 0 0 6 0l62.501-36.085a6 6 0 0 0 3-5.196V44.451a6 6 0 0 0-3-5.196M222.502 1.437a8 8 0 0 0-8 0L152 37.523a8 8 0 0 0-4 6.928v72.171a8 8 0 0 0 4 6.928l62.502 36.085a8 8 0 0 0 8 0l62.501-36.085a8 8 0 0 0 4-6.928V44.451c0-2.858-1.524-5.5-4-6.928zm-75 128.731 62.501 36.086a6 6 0 0 1 3 5.196v72.171a6 6 0 0 1-3 5.196l-62.501 36.085a6 6 0 0 1-6 0L79 248.817a6 6 0 0 1-3-5.196V171.45a6 6 0 0 1 3-5.196l62.502-36.086a6 6 0 0 1 6 0m-7-1.732a8 8 0 0 1 8 0l62.501 36.086a8 8 0 0 1 4 6.928v72.171a8 8 0 0 1-4 6.928l-62.501 36.085a8 8 0 0 1-8 0L78 250.549a8 8 0 0 1-4-6.928V171.45a8 8 0 0 1 4-6.928zm154 1.732 62.501 36.086a6 6 0 0 1 3 5.196v72.171a6 6 0 0 1-3 5.196l-62.501 36.085a6 6 0 0 1-6 0L226 248.817a6 6 0 0 1-3-5.196V171.45a6 6 0 0 1 3-5.196l62.502-36.086a6 6 0 0 1 6 0m-7-1.732a8 8 0 0 1 8 0l62.501 36.086a8 8 0 0 1 4 6.928v72.171a8 8 0 0 1-4 6.928l-62.501 36.085a8 8 0 0 1-8 0L225 250.549a8 8 0 0 1-4-6.928V171.45a8 8 0 0 1 4-6.928zm-214-125.267 62.501 36.086a6 6 0 0 1 3 5.196v72.171a6 6 0 0 1-3 5.196l-62.501 36.085a6 6 0 0 1-6 0L5 121.818a6 6 0 0 1-3-5.196V44.451a6 6 0 0 1 3-5.196L67.502 3.169a6 6 0 0 1 6 0m-7-1.732a8 8 0 0 1 8 0l62.501 36.086a8 8 0 0 1 4 6.928v72.171a8 8 0 0 1-4 6.928l-62.501 36.085a8 8 0 0 1-8 0L4 123.55a8 8 0 0 1-4-6.928V44.451a8 8 0 0 1 4-6.928z" clip-rule="evenodd"/>
  <defs>
    <radialGradient id="a" cx="0" cy="0" r="1" gradientTransform="matrix(120.50028 -120.00036 118.26873 118.76144 60.97 241)" gradientUnits="userSpaceOnUse">
      <stop stop-color="#2E67EA"/>
      <stop offset="1" stop-color="#2E67EA" stop-opacity="0"/>
    </radialGradient>
    <radialGradient id="b" cx="0" cy="0" r="1" gradientTransform="rotate(119.726 138.32 141.136)scale(128.985 148.915)" gradientUnits="userSpaceOnUse">
      <stop stop-color="#17D4A7" stop-opacity=".5"/>
      <stop offset="1" stop-color="#17D4A7" stop-opacity="0"/>
    </radialGradient>
  </defs>
</svg>
